X: 15411
T: Glen Allen
R: reel
M: 4/4
K: Gmajor
|:D|G/A/G DG EGDE|G/F/G BG AG E/F/G|A/B/A EA FAEA|ABcd edBA|
G/A/G DG EGDE|G/F/G BG AGEG|c2 B/c/d ef g/f/e|dBAF G3:|
|:d|g/a/g dg egde|g/f/g bg ag e/f/g|a/b/a ea faeg|a/^g/a b=g ag d/e/f|
g/a/g dg egde|g/f/g bg agec|ABcd efge|dBAF G3:|

